X: 27
T: The LEVIATHAN
%R: hornpipe
B: Jean White "100 Popular Hornpipes, Reels, Jigs and Country Dances", Boston 1880 p.11
F: http://www.loc.gov/resource/sm1880.09124.0#seq-1
Z: 2014 John Chambers <jc:trillian.mit.edu>
M: C|
L: 1/8
K: Bb
% - - - - - - - - - - - - - - - - - - - - - - - - - - - - -
B>A |\
B2B,2 d2 (3dcB | G2g2 g2f>e |\
(3def B2 (3cde A2 | (3BAB (3dcB (3AGF (3EDC |
B,2B2 d2 (3dcB | G2g2 g2f>e |\
(3def B2 (3cde A2 | B2b2 B2 :|
|: c>B |\
A>f T(3f=ef a>f T(3fef | b>f T(3f=ef e>dc>B |\
A>f T(3f=ef g>fe>d | e2c2 c3F |
D>B T(3BAB G>B T(3BAB | F>B (3BAB G2F>E |\
(3DFB (3dfb (3agf (3edc | B2b2 B2 H:|
% - - - - - - - - - - - - - - - - - - - - - - - - - - - - -

%%sep 1 1 500
%%sep 1 1 500
